assets/img/ai.svg

<svg xmlns="http://www.w3.org/2000/svg" xmlns:xlink="http://www.w3.org/1999/xlink" width="60" height="60" viewBox="0 0 60 60">
  <defs>
    <path id="ai-a" d="M32.83125,43.125 C32.4812483,42.0999949 32.1187519,41.087505 31.74375,40.0875 C31.3687481,39.087495 31.0062518,38.0625053 30.65625,37.0125 L19.70625,37.0125 C19.3562483,38.0625053 19.0000018,39.0937449 18.6375,40.10625 C18.2749982,41.1187551 17.9187518,42.124995 17.56875,43.125 L12.65625,43.125 C13.6312549,40.3499861 14.5562456,37.7875118 15.43125,35.4375 C16.3062544,33.0874883 17.1624958,30.8625105 18,28.7625 C18.8375042,26.6624895 19.6687459,24.6625095 20.49375,22.7625 C21.3187541,20.8624905 22.1687456,18.9875092 23.04375,17.1375 L27.50625,17.1375 C28.3812544,18.9875092 29.2312459,20.8624905 30.05625,22.7625 C30.8812541,24.6625095 31.7124958,26.6624895 32.55,28.7625 C33.3875042,30.8625105 34.2499956,33.0874883 35.1375,35.4375 C36.0250044,37.7875118 36.9562451,40.3499861 37.93125,43.125 L32.83125,43.125 Z M25.18125,22.1625 C24.6062471,23.4875066 23.9500037,25.0999905 23.2125,27 C22.4749963,28.9000095 21.706254,30.9624889 20.90625,33.1875 L29.45625,33.1875 C28.656246,30.9624889 27.8812537,28.8875096 27.13125,26.9625 C26.3812463,25.0374904 25.7312527,23.4375064 25.18125,22.1625 Z M44.64375,43.125 L40.10625,43.125 L40.10625,23.5125 L44.64375,23.5125 L44.64375,43.125 Z M45.13125,17.775 C45.13125,18.6250042 44.8562527,19.2999975 44.30625,19.8 C43.7562473,20.3000025 43.1062537,20.55 42.35625,20.55 C41.5812461,20.55 40.9187527,20.3000025 40.36875,19.8 C39.8187472,19.2999975 39.54375,18.6250042 39.54375,17.775 C39.54375,16.8999956 39.8187472,16.2125025 40.36875,15.7125 C40.9187527,15.2124975 41.5812461,14.9625 42.35625,14.9625 C43.1062537,14.9625 43.7562473,15.2124975 44.30625,15.7125 C44.8562527,16.2125025 45.13125,16.8999956 45.13125,17.775 Z"/>
  </defs>
  <g fill="none" fill-rule="evenodd">
    <path fill="#F47301" fill-rule="nonzero" d="M3.75,3.75 L3.75,56.25 L56.25,56.25 L56.25,3.75 L3.75,3.75 Z M0,0 L60,0 L60,60 L0,60 L0,0 Z"/>
    <mask id="ai-b" fill="#fff">
      <use xlink:href="#ai-a"/>
    </mask>
    <use fill="#FFF" xlink:href="#ai-a"/>
    <rect width="60" height="60" fill="#F47301" mask="url(#ai-b)"/>
  </g>
</svg>

<svg xmlns="http://www.w3.org/2000/svg" xmlns:xlink="http://www.w3.org/1999/xlink" width="60" height="60" xmlns:v="https://vecta.io/nano"><defs><path id="A" d="M32.83 43.125l-1.087-3.038-1.087-3.075h-10.95l-1.07 3.094-1.07 3.02h-4.913l2.775-7.687L18 28.763l2.494-6 2.55-5.625h4.463l2.55 5.625 2.494 6 2.588 6.675 2.794 7.688h-5.1zm-7.65-20.962L23.213 27l-2.306 6.188h8.55l-2.325-6.225-1.95-4.8zm19.463 20.963h-4.537V23.513h4.537v19.613zm.488-25.35c0 .85-.275 1.525-.825 2.025a2.8 2.8 0 0 1-1.95.75 2.85 2.85 0 0 1-1.988-.75c-.55-.5-.825-1.175-.825-2.025 0-.875.275-1.562.825-2.062a2.85 2.85 0 0 1 1.988-.75 2.8 2.8 0 0 1 1.95.75c.55.5.825 1.187.825 2.062z"/></defs><g fill-rule="evenodd"><path fill="#f47301" fill-rule="nonzero" d="M3.75 3.75v52.5h52.5V3.75H3.75zM0 0h60v60H0V0z"/><mask id="B" fill="#fff"><use xlink:href="#A"/></mask><use fill="#fff" xlink:href="#A"/><path fill="#f47301" mask="url(#B)" d="M0 0h60v60H0z"/></g></svg>
